symbols/web/rotate_90_degrees_ccw/materialsymbolsrounded/rotate_90_degrees_ccw_wght700grad200fill1_40px.svg

<svg xmlns="http://www.w3.org/2000/svg" height="40" width="40"><path d="M22.583 37.625q-1.833 0-3.479-.375-1.646-.375-3.062-1.25-1.125-.5-1.25-1.625t.791-2.042q.417-.458 1.063-.562.646-.104 1.271.187 1.041.584 2.166.917 1.125.333 2.5.333 4.834 0 8.084-3.396 3.25-3.395 3.25-7.937 0-4.667-2.959-7.687-2.958-3.021-6.333-3.563l-.792-.042 1 .959q.042.666-.104 1.291-.146.625-.646 1.125-.666.667-1.541.667-.875 0-1.542-.667l-4.333-4.375q-.292-.291-.459-.708-.166-.417-.166-.792 0-.416.166-.854.167-.437.5-.729L21 2.167q.667-.625 1.542-.625t1.541.625q.542.583.605 1.354.062.771-.271 1.479l-1.042.958h.833q2.792.334 5.354 1.625 2.563 1.292 4.521 3.375 1.959 2.084 3.125 4.875 1.167 2.792 1.167 6.042 0 6.417-4.563 11.083-4.562 4.667-11.229 4.667ZM10.667 31.5q-.459 0-.855-.146-.395-.146-.687-.479l-7.542-7.542q-.333-.25-.521-.666-.187-.417-.187-.875 0-.417.187-.834.188-.416.521-.708l7.542-7.583q.292-.25.687-.438.396-.187.855-.187.416 0 .833.187.417.188.708.438l7.542 7.583q.25.292.458.708.209.417.209.834 0 .458-.209.875-.208.416-.458.666l-7.542 7.542q-.291.333-.708.479-.417.146-.833.146Z"/></svg>

<svg xmlns="http://www.w3.org/2000/svg" height="40" width="40"><path d="M22.583 37.625Q20.75 37.625 19.104 37.25Q17.458 36.875 16.042 36Q14.917 35.5 14.792 34.375Q14.667 33.25 15.583 32.333Q16 31.875 16.646 31.771Q17.292 31.667 17.917 31.958Q18.958 32.542 20.083 32.875Q21.208 33.208 22.583 33.208Q27.417 33.208 30.667 29.812Q33.917 26.417 33.917 21.875Q33.917 17.208 30.958 14.188Q28 11.167 24.625 10.625L23.833 10.583L24.833 11.542Q24.875 12.208 24.729 12.833Q24.583 13.458 24.083 13.958Q23.417 14.625 22.542 14.625Q21.667 14.625 21 13.958L16.667 9.583Q16.375 9.292 16.208 8.875Q16.042 8.458 16.042 8.083Q16.042 7.667 16.208 7.229Q16.375 6.792 16.708 6.5L21 2.167Q21.667 1.542 22.542 1.542Q23.417 1.542 24.083 2.167Q24.625 2.75 24.688 3.521Q24.75 4.292 24.417 5L23.375 5.958H24.208Q27 6.292 29.562 7.583Q32.125 8.875 34.083 10.958Q36.042 13.042 37.208 15.833Q38.375 18.625 38.375 21.875Q38.375 28.292 33.812 32.958Q29.25 37.625 22.583 37.625ZM10.667 31.5Q10.208 31.5 9.812 31.354Q9.417 31.208 9.125 30.875L1.583 23.333Q1.25 23.083 1.062 22.667Q0.875 22.25 0.875 21.792Q0.875 21.375 1.062 20.958Q1.25 20.542 1.583 20.25L9.125 12.667Q9.417 12.417 9.812 12.229Q10.208 12.042 10.667 12.042Q11.083 12.042 11.5 12.229Q11.917 12.417 12.208 12.667L19.75 20.25Q20 20.542 20.208 20.958Q20.417 21.375 20.417 21.792Q20.417 22.25 20.208 22.667Q20 23.083 19.75 23.333L12.208 30.875Q11.917 31.208 11.5 31.354Q11.083 31.5 10.667 31.5Z"/></svg>
